website/static/img/comms.svg

<?xml version="1.0" encoding="UTF-8"?>
<svg width="60px" height="68px" viewBox="0 0 60 68" version="1.1" xmlns="http://www.w3.org/2000/svg" xmlns:xlink="http://www.w3.org/1999/xlink">
    <!-- Generator: Sketch 53.2 (72643) - https://sketchapp.com -->
    <title>Group 3</title>
    <desc>Created with Sketch.</desc>
    <defs>
        <polygon id="path-1" points="0.0005 0.0002 60 0.0002 60 67.27 0.0005 67.27"></polygon>
    </defs>
    <g id="Page-1" stroke="none" stroke-width="1" fill="none" fill-rule="evenodd">
        <g id="Artboard" transform="translate(-971.000000, -633.000000)">
            <g id="Group-3" transform="translate(971.000000, 633.000000)">
                <mask id="mask-2" fill="white">
                    <use xlink:href="#path-1"></use>
                </mask>
                <g id="Clip-2"></g>
                <path d="M52.4805,46.0602 C49.4395,46.0602 46.9595,43.6402 46.9595,40.6502 C46.9595,37.6602 49.4395,35.2302 52.4805,35.2302 C55.5295,35.2302 58.0005,37.6602 58.0005,40.6502 C58.0005,43.6402 55.5295,46.0602 52.4805,46.0602 L52.4805,46.0602 Z M29.4195,57.2502 C28.9295,55.9102 28.0405,54.7502 26.9005,53.9302 L26.9005,53.9202 L29.4595,45.8202 C29.6395,45.8302 29.8205,45.8302 30.0005,45.8302 C34.7795,45.8302 38.7795,42.5902 39.8705,38.2202 L44.9805,40.3302 C44.9595,40.4302 44.9595,40.5402 44.9595,40.6502 C44.9595,42.6602 45.7595,44.4602 47.0605,45.7902 L29.4195,57.2502 Z M22.3895,65.2702 C19.3495,65.2702 16.8705,62.8402 16.8705,59.8602 C16.8705,56.8702 19.3495,54.4402 22.3895,54.4402 C25.4395,54.4402 27.9105,56.8702 27.9105,59.8602 C27.9105,62.8402 25.4395,65.2702 22.3895,65.2702 L22.3895,65.2702 Z M11.0405,39.8902 C13.0005,38.8702 14.4395,37.0302 14.9005,34.8202 L19.8595,35.3102 C19.8495,35.4802 19.8495,35.6602 19.8495,35.8302 C19.8495,40.5002 23.0805,44.4102 27.4595,45.5102 L25.1095,52.9402 C24.2695,52.6202 23.3495,52.4402 22.3895,52.4402 C21.2195,52.4402 20.1095,52.7002 19.1295,53.1702 L11.0405,39.8902 Z M7.5295,38.7402 C4.4805,38.7402 2.0005,36.3102 2.0005,33.3202 C2.0005,30.3402 4.4805,27.9102 7.5295,27.9102 C10.5705,27.9102 13.0495,30.3402 13.0495,33.3202 C13.0495,36.3102 10.5705,38.7402 7.5295,38.7402 L7.5295,38.7402 Z M3.2695,7.4202 C3.2695,4.4302 5.7505,2.0002 8.7995,2.0002 C11.8395,2.0002 14.3205,4.4302 14.3205,7.4202 C14.3205,10.4002 11.8395,12.8302 8.7995,12.8302 C5.7505,12.8302 3.2695,10.4002 3.2695,7.4202 L3.2695,7.4202 Z M22.8305,28.7402 C21.5605,29.9802 20.6295,31.5602 20.1695,33.3302 L15.0195,32.8202 C14.8105,29.4302 12.2905,26.6802 8.9805,26.0502 L8.9805,14.8202 C10.2095,14.8002 11.3595,14.4802 12.3705,13.9502 L22.8305,28.7402 Z M30.0005,27.8202 C34.5005,27.8202 38.1605,31.4102 38.1605,35.8302 C38.1605,40.2402 34.5005,43.8302 30.0005,43.8302 C25.5095,43.8302 21.8495,40.2402 21.8495,35.8302 C21.8495,31.4102 25.5095,27.8202 30.0005,27.8202 L30.0005,27.8202 Z M52.4805,33.2302 C49.1295,33.2302 46.3105,35.3602 45.3395,38.3302 L40.1505,36.1702 C40.1605,36.0602 40.1605,35.9502 40.1605,35.8302 C40.1605,30.2902 35.6205,25.8202 30.0005,25.8202 C27.9295,25.8202 26.0095,26.4302 24.4005,27.4802 L13.9905,12.7702 C15.4295,11.4402 16.3205,9.5302 16.3205,7.4202 C16.3205,3.3102 12.9695,0.0002 8.7995,0.0002 C4.6295,0.0002 1.2695,3.3102 1.2695,7.4202 C1.2695,10.9002 3.6895,13.8102 6.9805,14.6102 L6.9805,25.9402 C3.0705,26.2102 0.0005,29.3902 0.0005,33.3202 C0.0005,37.4302 3.3595,40.7402 7.5295,40.7402 C8.0705,40.7402 8.5995,40.6802 9.1095,40.5702 L17.4505,54.2702 C15.8595,55.6202 14.8705,57.6202 14.8705,59.8602 C14.8705,63.9702 18.2195,67.2702 22.3895,67.2702 C26.5605,67.2702 29.9105,63.9702 29.9105,59.8602 C29.9105,59.6902 29.9005,59.5202 29.8795,59.3502 L48.7405,47.0802 C49.8395,47.7002 51.1205,48.0602 52.4805,48.0602 C56.6505,48.0602 60.0005,44.7602 60.0005,40.6502 C60.0005,36.5402 56.6505,33.2302 52.4805,33.2302 L52.4805,33.2302 Z" id="Fill-1" fill="#1F374F" mask="url(#mask-2)"></path>
            </g>
        </g>
    </g>
</svg>

<svg width="60" height="68" xmlns="http://www.w3.org/2000/svg" xmlns:xlink="http://www.w3.org/1999/xlink"><defs><path id="a" d="M0 0h60v67.27H0z"/></defs><g fill="none" fill-rule="evenodd"><mask id="b" fill="#fff"><use xlink:href="#a"/></mask><path d="M52.48 46.06c-3.04 0-5.52-2.42-5.52-5.41s2.48-5.42 5.52-5.42c3.05 0 5.52 2.43 5.52 5.42 0 2.99-2.47 5.41-5.52 5.41zM29.42 57.25a7.113 7.113 0 0 0-2.52-3.32v-.01l2.56-8.1c.18.01.36.01.54.01 4.78 0 8.78-3.24 9.87-7.61l5.11 2.11c-.02.1-.02.21-.02.32 0 2.01.8 3.81 2.1 5.14L29.42 57.25zm-7.03 8.02c-3.04 0-5.52-2.43-5.52-5.41 0-2.99 2.48-5.42 5.52-5.42 3.05 0 5.52 2.43 5.52 5.42 0 2.98-2.47 5.41-5.52 5.41zM11.04 39.89a7.432 7.432 0 0 0 3.86-5.07l4.96.49c-.01.17-.01.35-.01.52 0 4.67 3.23 8.58 7.61 9.68l-2.35 7.43a7.64 7.64 0 0 0-2.72-.5c-1.17 0-2.28.26-3.26.73l-8.09-13.28zm-3.51-1.15C4.48 38.74 2 36.31 2 33.32c0-2.98 2.48-5.41 5.53-5.41 3.04 0 5.52 2.43 5.52 5.41 0 2.99-2.48 5.42-5.52 5.42zM3.27 7.42C3.27 4.43 5.75 2 8.8 2c3.04 0 5.52 2.43 5.52 5.42 0 2.98-2.48 5.41-5.52 5.41-3.05 0-5.53-2.43-5.53-5.41zm19.56 21.32a9.888 9.888 0 0 0-2.66 4.59l-5.15-.51c-.21-3.39-2.73-6.14-6.04-6.77V14.82a7.549 7.549 0 0 0 3.39-.87l10.46 14.79zm7.17-.92c4.5 0 8.16 3.59 8.16 8.01 0 4.41-3.66 8-8.16 8-4.49 0-8.15-3.59-8.15-8 0-4.42 3.66-8.01 8.15-8.01zm22.48 5.41c-3.35 0-6.17 2.13-7.14 5.1l-5.19-2.16c.01-.11.01-.22.01-.34 0-5.54-4.54-10.01-10.16-10.01-2.07 0-3.99.61-5.6 1.66L13.99 12.77a7.264 7.264 0 0 0 2.33-5.35C16.32 3.31 12.97 0 8.8 0S1.27 3.31 1.27 7.42c0 3.48 2.42 6.39 5.71 7.19v11.33C3.07 26.21 0 29.39 0 33.32c0 4.11 3.36 7.42 7.53 7.42.54 0 1.07-.06 1.58-.17l8.34 13.7a7.29 7.29 0 0 0-2.58 5.59c0 4.11 3.35 7.41 7.52 7.41s7.52-3.3 7.52-7.41c0-.17-.01-.34-.03-.51l18.86-12.27c1.1.62 2.38.98 3.74.98 4.17 0 7.52-3.3 7.52-7.41s-3.35-7.42-7.52-7.42z" fill="#1F374F" mask="url(#b)"/></g></svg>
